svg/system/refresh_1_line.svg

<?xml version="1.0" encoding="UTF-8"?>
<svg width="24px" height="24px" viewBox="0 0 24 24" version="1.1" xmlns="http://www.w3.org/2000/svg" xmlns:xlink="http://www.w3.org/1999/xlink">
    <title>refresh_1_line</title>
    <g id="页面-1" stroke="none" stroke-width="1" fill="none" fill-rule="evenodd">
        <g id="System" transform="translate(-1008.000000, 0.000000)">
            <g id="refresh_1_line" transform="translate(1008.000000, 0.000000)">
                 <path d="M24,0 L24,24 L0,24 L0,0 L24,0 Z M12.5934901,23.257841 L12.5819402,23.2595131 L12.5108777,23.2950439 L12.4918791,23.2987469 L12.4918791,23.2987469 L12.4767152,23.2950439 L12.4056548,23.2595131 C12.3958229,23.2563662 12.3870493,23.2590235 12.3821421,23.2649074 L12.3780323,23.275831 L12.360941,23.7031097 L12.3658947,23.7234994 L12.3769048,23.7357139 L12.4804777,23.8096931 L12.4953491,23.8136134 L12.4953491,23.8136134 L12.5071152,23.8096931 L12.6106902,23.7357139 L12.6232938,23.7196733 L12.6232938,23.7196733 L12.6266527,23.7031097 L12.609561,23.275831 C12.6075724,23.2657013 12.6010112,23.2592993 12.5934901,23.257841 L12.5934901,23.257841 Z M12.8583906,23.1452862 L12.8445485,23.1473072 L12.6598443,23.2396597 L12.6498822,23.2499052 L12.6498822,23.2499052 L12.6471943,23.2611114 L12.6650943,23.6906389 L12.6699349,23.7034178 L12.6699349,23.7034178 L12.678386,23.7104931 L12.8793402,23.8032389 C12.8914285,23.8068999 12.9022333,23.8029875 12.9078286,23.7952264 L12.9118235,23.7811639 L12.8776777,23.1665331 C12.8752882,23.1545897 12.8674102,23.1470016 12.8583906,23.1452862 L12.8583906,23.1452862 Z M12.1430473,23.1473072 C12.1332178,23.1423925 12.1221763,23.1452606 12.1156365,23.1525954 L12.1099173,23.1665331 L12.0757714,23.7811639 C12.0751323,23.7926639 12.0828099,23.8018602 12.0926481,23.8045676 L12.108256,23.8032389 L12.3092106,23.7104931 L12.3186497,23.7024347 L12.3186497,23.7024347 L12.3225043,23.6906389 L12.340401,23.2611114 L12.337245,23.2485176 L12.337245,23.2485176 L12.3277531,23.2396597 L12.1430473,23.1473072 Z" id="MingCute" fill-rule="nonzero"></path>
                <path d="M9.92954,19.7276 C13.6059,20.7126 17.3728,18.9694 19.0757,15.7375 C19.3331,15.2489 19.9379,15.0615 20.4265,15.319 C20.9151,15.5764 21.1025,16.1812 20.8451,16.6698 C18.7163,20.71 14.01,22.8915 9.41191,21.6594 C4.07724,20.23 0.911422,14.7466 2.34084,9.41197 C3.77026,4.07731 9.25363,0.911481 14.5883,2.3409 C18.5921,3.41372 21.3721,6.76933 21.9079,10.6286 C21.967,11.0542 21.9989,11.4861 22.0021324,11.9218 C22.0087,12.8243 21.0066,13.3234 20.2894,12.8401 L17.6158,11.0387 C16.6077,10.3594 17.2837,8.78804 18.4701,9.05283 L19.5276,9.28886 C18.6682,6.90945 16.6973,4.97657 14.0707,4.27275 C9.80292,3.12922 5.41623,5.66188 4.27269,9.9296 C3.12916,14.1973 5.66182,18.584 9.92954,19.7276 Z" id="路径" fill="#09244B"></path>
            </g>
        </g>
    </g>
</svg>

<svg xmlns="http://www.w3.org/2000/svg" width="24" height="24"><g fill="none" fill-rule="evenodd"><path d="M24 0v24H0V0h24ZM12.593 23.258l-.011.002-.071.035-.02.004-.014-.004-.071-.035c-.01-.004-.019-.001-.024.005l-.004.01-.017.428.005.02.01.013.104.074.015.004.012-.004.104-.074.012-.016.004-.017-.017-.427c-.002-.01-.009-.017-.017-.018Zm.265-.113-.013.002-.185.093-.01.01-.003.011.018.43.005.012.008.007.201.093c.012.004.023 0 .029-.008l.004-.014-.034-.614c-.003-.012-.01-.02-.02-.022Zm-.715.002a.023.023 0 0 0-.027.006l-.006.014-.034.614c0 .012.007.02.017.024l.015-.002.201-.093.01-.008.004-.011.017-.43-.003-.012-.01-.01-.184-.092Z"/><path fill="#09244B" d="M9.93 19.728a8.004 8.004 0 0 0 9.146-3.99 1 1 0 1 1 1.77.932c-2.13 4.04-6.836 6.221-11.434 4.99-5.335-1.43-8.5-6.913-7.071-12.248 1.43-5.335 6.913-8.5 12.247-7.071a10.003 10.003 0 0 1 7.414 9.58c.007.903-.995 1.402-1.713.92l-2.673-1.802c-1.008-.68-.332-2.251.854-1.986l1.058.236A8 8 0 1 0 9.93 19.728Z"/></g></svg>
